!!!COM: Claude Goudimel
!!!OMD: Psalm 66: Or sus, louez Dieu tout le monde
**kern	**kern	**kern	**kern
*part4	*part3	*part2	*part1
*staff4	*staff3	*staff2	*staff1
*I"bassus	*I"tenor	*I"contra	*I"superius
*clefF3	*clefC3	*clefC2	*clefG2
!!LO:TX:omd:t=
*M2/2	*M2/2	*M2/2	*M2/2
*met(c|)	*met(c|)	*met(c|)	*met(c|)
=1	=1	=1	=1
1CC	1C	1E	1G
=2	=2	=2	=2
2DD	2AA	2D	2F
2EE	2GG	2BB	2E
=3	=3	=3	=3
2FF	2C	2AA	2A
2AA	2C	2E	2A
=4	=4	=4	=4
2GG	2D	2G	2B
2DD	2F	2A	[2d
=5	=5	=5	=5
1AA	1E	1A	2d]
.	.	.	2c#X
=6	=6	=6	=6
1DD	1D	1A	1d
=7	=7	=7	=7
1r	1r	1r	1r
=8	=8	=8	=8
1CC	1G	1c	1e
=9	=9	=9	=9
2CC	2E	2G	2c
2CC	2E	2G	2c
=10	=10	=10	=10
2FF	2C	2F	2A
2DD	2F	2A	[2d
=11	=11	=11	=11
1EE	1E	1G	2d]
.	.	.	[2c
=12	=12	=12	=12
1GG	1D	1G	2c]
.	.	.	2B
=13	=13	=13	=13
1CC	1C	1E	1c
=14	=14	=14	=14
1r	1r	1r	1r
=15	=15	=15	=15
1CC	1C	1E	1G
=16	=16	=16	=16
2DD	2AA	2D	2F
2EE	2GG	2BB	2E
=17	=17	=17	=17
2FF	2C	2AA	2A
2AA	2C	2E	2A
=18	=18	=18	=18
2GG	2D	2G	2B
2DD	2F	2A	2d
=19	=19	=19	=19
1AA	1E	1A	1c
=20	=20	=20	=20
[1DD	[1D	[1F#X	[1A
=21	=21	=21	=21
2DD]	2D]	2F#]	2A]
2r	2r	2r	2r
=22	=22	=22	=22
1CC	1G	1E	1c
=23	=23	=23	=23
2FF	2F	2C	2A
2CC	2E	2C	2G
=24	=24	=24	=24
2GG	2D	2BB	2G
2AA	2C	2C	2E
=25	=25	=25	=25
2GG	2C	2D	2G
2GG	2BB	2D	2G
=26	=26	=26	=26
1CC	1C	1E	1G
=27	=27	=27	=27
1r	1r	1r	1r
=28	=28	=28	=28
1C	1G	1E	1c
=29	=29	=29	=29
2C	2G	2E	2c
2FF	2F	2A	2c
=30	=30	=30	=30
1C	1E	1G	1c
=31	=31	=31	=31
2GG	1D	2G	2B
2DD	.	[2F	[2A
=32	=32	=32	=32
2FF	2C	2F]	2A]
2GG	2BB	2D	[2G
=33	=33	=33	=33
1DD	1AA	1D	2G]
.	.	.	2F#X
=34	=34	=34	=34
1GG	1GG	1D	1G
=35	=35	=35	=35
1r	1r	1r	1r
=36	=36	=36	=36
1CC	1GG	1C	1E
=37	=37	=37	=37
2CC	2C	2E	2G
2CC	2C	2E	2G
=38	=38	=38	=38
2GG	2BB	2D	2G
2DD	2AA	[2D	2F
=39	=39	=39	=39
1AA	1C	2D]	1E
.	.	[2C	.
=40	=40	=40	=40
1GG	1D	2C]	1G
.	.	2BB	.
=41	=41	=41	=41
1CC	1E	1C	1G
=42	=42	=42	=42
1r	1r	1r	1r
=43	=43	=43	=43
1C	1C	1E	1G
=44	=44	=44	=44
2AA	2C	2E	2A
2GG	2D	2G	2B
=45	=45	=45	=45
2C	2E	2G	2c
2FF	2C	2F	2A
=46	=46	=46	=46
2DD	2F	2A	2d
2FF	2F	2A	2c
=47	=47	=47	=47
1CC	1E	1G	1c
=48	=48	=48	=48
1GG	1D	1G	1B
=49	=49	=49	=49
1r	1r	1r	1r
=50	=50	=50	=50
1CC	1G	1E	1c
=51	=51	=51	=51
2FF	2F	2C	2A
2CC	2E	2C	2G
=52	=52	=52	=52
2GG	2D	2BB	2G
2AA	2C	2C	2E
=53	=53	=53	=53
2GG	2C	2D	2G
2GG	2BB	2D	2G
=54	=54	=54	=54
1CC	1C	1E	1G
=55	=55	=55	=55
1r	1r	1r	1r
=56	=56	=56	=56
1CC	1C	1E	1G
=57	=57	=57	=57
2DD	2AA	2D	2F
2EE	2GG	2BB	2E
=58	=58	=58	=58
2FF	2C	2AA	2A
2AA	2C	2E	2A
=59	=59	=59	=59
2GG	2D	2G	2B
2DD	2F	2A	[2d
=60	=60	=60	=60
1AA	1E	1A	2d]
.	.	.	2c#X
=61	=61	=61	=61
1DD	1D	1A	1d
=62	=62	=62	=62
1r	1r	1r	1r
=63	=63	=63	=63
1CC	1G	1c	1e
=64	=64	=64	=64
2CC	2E	2G	2c
2CC	2E	2G	2c
=65	=65	=65	=65
2FF	2C	2F	2A
2DD	2F	2A	[2d
=66	=66	=66	=66
1EE	1E	1G	2d]
.	.	.	[2c
=67	=67	=67	=67
1GG	1D	1G	2c]
.	.	.	2B
=68	=68	=68	=68
1CC	1C	1E	1c
=69	=69	=69	=69
1r	1r	1r	1r
=70	=70	=70	=70
1CC	1C	1E	1G
=71	=71	=71	=71
2DD	2AA	2D	2F
2EE	2GG	2BB	2E
=72	=72	=72	=72
2FF	2C	2AA	2A
2AA	2C	2E	2A
=73	=73	=73	=73
2GG	2D	2G	2B
2DD	2F	2A	2d
=74	=74	=74	=74
1AA	1E	1A	1c
=75	=75	=75	=75
1DD	1D	1F#X	1A
=76	=76	=76	=76
1r	1r	1r	1r
=77	=77	=77	=77
1CC	1G	1E	1c
=78	=78	=78	=78
2FF	2F	2C	2A
2CC	2E	2C	2G
=79	=79	=79	=79
2GG	2D	2BB	2G
2AA	2C	2C	2E
=80	=80	=80	=80
2GG	2C	2D	2G
2GG	2BB	2D	2G
=81	=81	=81	=81
1CC	1C	1E	1G
=82	=82	=82	=82
1r	1r	1r	1r
=83	=83	=83	=83
1C	1G	1E	1c
=84	=84	=84	=84
2C	2G	2E	2c
2FF	2F	2A	2c
=85	=85	=85	=85
1C	1E	1G	1c
=86	=86	=86	=86
2GG	1D	2G	2B
2DD	.	[2F	[2A
=87	=87	=87	=87
2FF	2C	2F]	2A]
2GG	2BB	2D	[2G
=88	=88	=88	=88
1DD	1AA	1D	2G]
.	.	.	2F#X
=89	=89	=89	=89
1GG	1GG	1D	1G
=90	=90	=90	=90
1r	1r	1r	1r
=91	=91	=91	=91
1CC	1GG	1C	1E
=92	=92	=92	=92
2CC	2C	2E	2G
2CC	2C	2E	2G
=93	=93	=93	=93
2GG	2BB	2D	2G
2DD	2AA	[2D	2F
=94	=94	=94	=94
1AA	1C	2D]	1E
.	.	[2C	.
=95	=95	=95	=95
1GG	1D	2C]	1G
.	.	2BB	.
=96	=96	=96	=96
1CC	1E	1C	1G
=97	=97	=97	=97
1r	1r	1r	1r
=98	=98	=98	=98
1C	1C	1E	1G
=99	=99	=99	=99
2AA	2C	2E	2A
2GG	2D	2G	2B
=100	=100	=100	=100
2C	2E	2G	2c
2FF	2C	2F	2A
=101	=101	=101	=101
2DD	2F	2A	2d
2FF	2F	2A	2c
=102	=102	=102	=102
1CC	1E	1G	1c
=103	=103	=103	=103
1GG	1D	1G	1B
=104	=104	=104	=104
1r	1r	1r	1r
=105	=105	=105	=105
1CC	1G	1E	1c
=106	=106	=106	=106
2FF	2F	2C	2A
2CC	2E	2C	2G
=107	=107	=107	=107
2GG	2D	2BB	2G
2AA	2C	2C	2E
=108	=108	=108	=108
2GG	2C	2D	2G
2GG	2BB	2D	2G
=109	=109	=109	=109
1CC;	1C;	1E;	1G;
==	==	==	==
*-	*-	*-	*-
!!!software: music21 v.9.7.1
!!!software: music21 v.8.3.0
!!!RDF**kern: > = above
!!!RDF**kern: < = below
